packages/sources/icons/src/vitamix/smartphone-line.svg

<svg width="16" height="16" viewBox="0 0 16 16" xmlns="http://www.w3.org/2000/svg"><path fill-rule="evenodd" clip-rule="evenodd" d="M3.99998 1.33334H12C12.3682 1.33334 12.6666 1.63181 12.6666 2V14C12.6666 14.3682 12.3682 14.6667 12 14.6667H3.99998C3.63179 14.6667 3.33331 14.3682 3.33331 14V2C3.33331 1.63181 3.63179 1.33334 3.99998 1.33334ZM4.66665 2.66667V13.3333H11.3333V2.66667H4.66665ZM8.66665 12C8.66665 11.6318 8.36817 11.3333 7.99998 11.3333C7.63179 11.3333 7.33331 11.6318 7.33331 12C7.33331 12.3682 7.63179 12.6667 7.99998 12.6667C8.36817 12.6667 8.66665 12.3682 8.66665 12Z"/></svg>

<svg width="16" height="16" xmlns="http://www.w3.org/2000/svg"><path fill-rule="evenodd" clip-rule="evenodd" d="M4 1.333h8c.368 0 .667.299.667.667v12a.667.667 0 0 1-.667.667H4A.667.667 0 0 1 3.333 14V2c0-.368.299-.667.667-.667Zm.667 1.334v10.666h6.666V2.667H4.667Zm4 9.333a.667.667 0 1 0-1.334 0 .667.667 0 0 0 1.334 0Z"/></svg>
